src/images/svg/symbols/chainlink.svg

<svg width="33" height="32" viewBox="0 0 33 32" fill="none" xmlns="http://www.w3.org/2000/svg">
<path d="M0.5 16C0.5 7.16344 7.66344 0 16.5 0C25.3366 0 32.5 7.16344 32.5 16C32.5 24.8366 25.3366 32 16.5 32C7.66344 32 0.5 24.8366 0.5 16Z" fill="#2A5ADA"/>
<path d="M16.5352 5L14.5171 6.16055L9.01765 9.33945L6.99951 10.5V21.5L9.01765 22.6606L14.5675 25.8394L16.5857 27L18.6038 25.8394L24.0528 22.6606L26.0709 21.5V10.5L24.0528 9.33945L18.5533 6.16055L16.5352 5ZM11.0358 19.1789V12.8211L16.5352 9.6422L22.0346 12.8211V19.1789L16.5352 22.3578L11.0358 19.1789Z" fill="white"/>
</svg>

<svg width="33" height="32" fill="none" xmlns="http://www.w3.org/2000/svg"><path d="M.5 16c0-8.837 7.163-16 16-16s16 7.163 16 16-7.163 16-16 16-16-7.163-16-16Z" fill="#2A5ADA"/><path d="m16.535 5-2.018 1.16-5.5 3.18L7 10.5v11l2.018 1.16 5.55 3.18L16.585 27l2.018-1.16 5.449-3.18 2.018-1.16v-11l-2.018-1.16-5.5-3.18L16.535 5Zm-5.5 14.179V12.82l5.5-3.179 5.5 3.18v6.357l-5.5 3.179-5.5-3.18Z" fill="#fff"/></svg>
